X:23
T:Les beaux jours
C:G. Chabenat
R:Scottish
I:Airs nouveaux pour danses anciennes
Q:1/4=96
Z:Transcrit et/ou corrig par Michel BELLON - 2005-09-11
Z:Pour toute observation mailto:galouvielle@free.fr
M:4/4
K:F
V:1
A/G/F/E/ FD de/d/ cA |c/=B/A/G/ AB/c/ d/c/B/A/ G2 |A/G/F/E/ FD de/d/ cA |c/=B/A/G/ AB/c/ d/c/B/e/ A2 ::
de fd ^c/d/e/c/ A2 |d/A/d/e/ f/e/d/c/ =BA/B/ G2 |de fd M^c/d/e/c/ A2 |f/e/d/c/ =B/A/G/E/ G/A/B/G/ A2 :|
V:2
 x8 |  x8 |  x8 |  x8 ::  x8 |  x8 |  x8 |  x8 :|
%%footer $D   Galouvielle-MBe 2006 \nPolka (France)
